!!!OTL: ES ISCH NOCH NIT LANG, DASS G'REGNET HAT
!!!ARE: Europa, Mitteleuropa, Deutschland, Schwaben
!!!SCT: Z0317
!!!YEM: Copyright 1995, estate of Helmut Schaffrath.
**kern
*ICvox
*Ivox
*M2/4
*k[b-]
*F:
{8c
=1
8f
8g
8a
8b-
=2
8cc
16cc
16bn
8cc}
{8ff
=3
8cc
16cc
16bn
8cc
8g
=4
4a
8r}
{8c
=5
8f
8g
8a
8b-
=6
8cc
16cc
16bn
8cc}
{8ff
=7
8cc
16b-
16a
8b-
8g
=8
4f
8r}
==
!!!AGN: Lyrisches Lied, Romanze, verlassene Liebe
!!!ONB: ESAC (Essen Associative Code) Database: ZUCCAL
!!!AMT: simple duple
!!!AIN: vox
!!!EED: Helmut Schaffrath
!!!EEV: 1.0
*-
